X:12
T:"Palee" - Walzer/Waltz/Valse
C:nach J. Prandstetter 1865
A:Pabneukirchen
Z:abc transcription Simon Wascher
N:please mail errors to simon.wascher@chello.at
M:3/4
L:1/4
K:G
ded|c3|cdc|B3|
ded|c3|cdc|B2B/c/|
dBG|dBG|ded|c2z|
cAF|cAF|cdc|B2B||
|:BA/B/c/d/|edB|dcA|cBG|
BA/B/c/d/|edB|dcA|1B2B:|2G2|]


